public/images/Home/Scribble.svg

<svg fill="none" height="20" viewBox="0 0 184 20" width="184" xmlns="http://www.w3.org/2000/svg"><path d="m127.363 18c-20.689-4.9751-43.7844-2.2756-64.7173-1.8187-6.0191.1315-12.1774 1.0084-18.1907.6329-.7843-.0488-4.2061-.2317-4.848-1.2095-.0838-.1272 2.5845-.629 3.8808-.8436 2.5205-.4173 5.0399-.7252 7.5584-1.1659 6.6212-1.1581 13.3581-1.7231 20.0372-2.2437 17.1454-1.3351 47.8176-5.44948 64.5736.3528.831.2874-1.736-.0495-2.604-.0762-1.427-.0435-2.853-.1065-4.28-.1569-4.654-.1638-9.347-.4553-14.002-.4094-14.9999.1467-30.0528-.5582-45.0492.0731-4.5124.1902-9.0104.5852-13.5248.7378-2.615.0884-2.4978.1632-5.2003.06-1.1718-.0448-4.4209.3517-3.4942-.4562 1.6322-1.4235 6.7337-1.0674 8.7068-1.3579 9.0089-1.32452 17.9955-3.05423 27.0504-3.98353 23.2173-2.38275 46.8533-2.38835 70.1243-1.39148 9.519.40779 19.137-1.16959 28.616.10485-22.999-3.34105-46.906-2.86668-70.031-2.77009-26.0377.10878-52.0457.11604-78.0836.73315-10.6895.25317-21.1634 2.54289-31.8854 2.37575" stroke="#fa885f" stroke-linecap="round" stroke-linejoin="round" stroke-miterlimit="1.5" stroke-width="2.81804"/></svg>

<svg width="184" height="20" viewBox="0 0 184 20" fill="none" xmlns="http://www.w3.org/2000/svg">
<path d="M127.363 18C106.674 13.0249 83.5786 15.7244 62.6457 16.1813C56.6266 16.3128 50.4683 17.1897 44.455 16.8142C43.6707 16.7654 40.2489 16.5825 39.607 15.6047C39.5232 15.4775 42.1915 14.9757 43.4878 14.7611C46.0083 14.3438 48.5277 14.0359 51.0462 13.5952C57.6674 12.4371 64.4043 11.8721 71.0834 11.3515C88.2288 10.0164 118.901 5.90202 135.657 11.7043C136.488 11.9917 133.921 11.6548 133.053 11.6281C131.626 11.5846 130.2 11.5216 128.773 11.4712C124.119 11.3074 119.426 11.0159 114.771 11.0618C99.7711 11.2085 84.7182 10.5036 69.7218 11.1349C65.2094 11.3251 60.7114 11.7201 56.197 11.8727C53.582 11.9611 53.6992 12.0359 50.9967 11.9327C49.8249 11.8879 46.5758 12.2844 47.5025 11.4765C49.1347 10.053 54.2362 10.4091 56.2093 10.1186C65.2182 8.79408 74.2048 7.06437 83.2597 6.13507C106.477 3.75232 130.113 3.74672 153.384 4.74359C162.903 5.15138 172.521 3.574 182 4.84844C159.001 1.50739 135.094 1.98176 111.969 2.07835C85.9313 2.18713 59.9233 2.19439 33.8854 2.8115C23.1959 3.06467 12.722 5.35439 2 5.18725" stroke="#FA885F" stroke-width="2.81804" stroke-miterlimit="1.5" stroke-linecap="round" stroke-linejoin="round"/>
</svg>
